X: 15550
T: Glenuig Hall
R: slip jig
M: 9/8
K: Gmajor
D2 d Bdd ABd|c2 f agf edB|D2 d Bdd ABd|c3 BcB AGE|
D2 d Bdd ABd|fgf f/g/af gfe|c2 f agf edc|BAG FAB G3:|
g3 g3 gfe|f3 f3 fed|BcB Bcd efa|gbg faf gfe|
g3 g3 gfe|f3 f3 fed|c2 f agf edc|BAG FAB G3:|
DDD EDD FDD|B3 c3 d3|DDD EDD FDD|G3 FGA BGE|
DDD EDD FDD|BDD cDD d2 B|c2 f agf edc|BAG FAB G3:|

